icons/folder_ansible_open.svg

<svg style="clip-rule:evenodd;fill-rule:evenodd;stroke-linejoin:round;stroke-miterlimit:1.4142" version="1.1" viewBox="0 0 24 24" xml:space="preserve" xmlns="http://www.w3.org/2000/svg"><path d="m19 20h-15c-1.111 0-2-.9-2-2v-12c0-1.11.89-2 2-2h6l2 2h7c1.097 0 2 .903 2 2h-17v10l2.14-8h17.07l-2.28 8.5c-.23.87-1.011 1.5-1.93 1.5z" style="fill:#45403d"/><g transform="matrix(.93781 0 0 .93781 6.3843 4.1861)"><g transform="matrix(.061679 0 0 .061679 2.5631 2.568)"><path d="m259.79 152.92c0 58.585-48.208 106.79-106.79 106.79s-106.79-48.208-106.79-106.79 48.208-106.79 106.79-106.79h.006c58.581 0 106.79 48.206 106.79 106.79v.006" style="fill-rule:nonzero;fill:#ddc7a1"/></g><g transform="matrix(.061679 0 0 .061679 2.5631 2.568)"><path d="m154.8 112.89l27.639 68.209-41.746-32.881 14.107-35.328zm49.096 83.922l-42.51-102.3c-1-2.752-3.658-4.574-6.586-4.513-2.973-.068-5.686 1.742-6.765 4.513l-46.657 112.21h15.961l18.468-46.268 55.117 44.53c2.219 1.794 3.816 2.605 5.897 2.605.06.001.119.002.179.002 4.182 0 7.624-3.442 7.624-7.625v-.006c-.072-1.082-.318-2.145-.728-3.149" style="fill-rule:nonzero;fill:#45403d"/></g></g></svg>

<svg height="100%" stroke-miterlimit="10" style="fill-rule:nonzero;clip-rule:evenodd;stroke-linecap:round;stroke-linejoin:round;" version="1.1" viewBox="0 0 24 24" width="100%" xml:space="preserve" xmlns="http://www.w3.org/2000/svg" xmlns:vectornator="http://vectornator.io" xmlns:xlink="http://www.w3.org/1999/xlink">
<defs/>
<g>
<path d="M19 20L4 20C2.89543 20 2 19.1046 2 18L2 6C2 4.89 2.89 4 4 4L10 4L12 6L19 6C20.097 6 21 6.903 21 8L4 8L4 18L6.14 10L23.21 10L20.93 18.5C20.7 19.37 19.92 20 19 20Z" fill="#45403d" fill-rule="nonzero" opacity="1" stroke="none"/>
<path d="M17.804 11.82L20.484 18.167L16.447 15.119L17.804 11.819L17.804 11.82ZM22.561 19.641L18.441 10.111C18.206 9.553 17.393 9.545 17.151 10.111L12.628 20.546L14.169 20.546L15.961 16.241L21.304 20.395C21.91 20.966 22.896 20.39 22.561 19.641Z" fill="#ffcdd2" fill-rule="nonzero" opacity="1" stroke="none"/>
</g>
</svg>
